src/assets/openshipai-logo-3.svg

<svg width="200" height="122" viewBox="0 0 717 122" fill="none" xmlns="http://www.w3.org/2000/svg"><path d="M8.274 94.206C1.53 82.676-1.571 68.433.779 55.284A56.163 56.163 0 0157.085 9.01c13.355.243 28.549 7.6 38.554 16.45l-12.014 8.548a41.595 41.595 0 00-63.463 52.157L8.274 94.206z" fill="url(#paint0_linear_782_1398)"/><path d="M105.497 38.524c5.157 11.31 7.897 27.238 5.035 39.334a55.968 55.968 0 01-53.454 43.073c-19.477 0-28.083-6.01-38.038-13.454l12.264-9.394a41.346 41.346 0 0062.382-50.268l11.811-9.291z" fill="url(#paint1_linear_782_1398)"/><path d="M213.568 94.536c-5.056 0-9.568-1.12-13.536-3.36-3.968-2.304-7.072-5.408-9.312-9.312-2.176-3.968-3.264-8.416-3.264-13.344 0-4.864 1.088-9.28 3.264-13.248 2.24-3.968 5.344-7.072 9.312-9.312 3.968-2.304 8.48-3.456 13.536-3.456 4.992 0 9.472 1.152 13.44 3.456 3.968 2.24 7.04 5.344 9.216 9.312 2.24 3.968 3.36 8.384 3.36 13.248 0 4.928-1.12 9.376-3.36 13.344-2.176 3.904-5.248 7.008-9.216 9.312-3.968 2.24-8.448 3.36-13.44 3.36zm0-11.616c2.432 0 4.672-.576 6.72-1.728 2.048-1.152 3.68-2.816 4.896-4.992 1.216-2.176 1.824-4.736 1.824-7.68 0-2.88-.608-5.408-1.824-7.584-1.216-2.176-2.848-3.84-4.896-4.992-2.048-1.152-4.288-1.728-6.72-1.728-2.432 0-4.672.576-6.72 1.728-2.048 1.152-3.712 2.816-4.992 4.992-1.216 2.176-1.824 4.704-1.824 7.584s.608 5.44 1.824 7.68c1.28 2.176 2.944 3.84 4.992 4.992 2.048 1.152 4.288 1.728 6.72 1.728zm34.786-38.88h11.808v5.952h.768c1.344-2.112 3.296-3.872 5.856-5.28 2.56-1.472 5.504-2.208 8.832-2.208 4.416 0 8.416 1.12 12 3.36 3.648 2.176 6.496 5.248 8.544 9.216 2.048 3.968 3.072 8.448 3.072 13.44 0 5.056-1.024 9.568-3.072 13.536-2.048 3.904-4.896 6.976-8.544 9.216-3.584 2.176-7.584 3.264-12 3.264-3.328 0-6.304-.704-8.928-2.112-2.56-1.408-4.48-3.168-5.76-5.28h-.768l.768 6.912v19.68h-12.576V44.04zm25.056 38.88a12.75 12.75 0 006.624-1.824c2.048-1.216 3.68-2.912 4.896-5.088 1.216-2.176 1.824-4.672 1.824-7.488 0-2.816-.608-5.312-1.824-7.488-1.216-2.176-2.848-3.84-4.896-4.992a12.75 12.75 0 00-6.624-1.824c-2.304 0-4.48.608-6.528 1.824-2.048 1.152-3.68 2.816-4.896 4.992-1.216 2.176-1.824 4.672-1.824 7.488 0 2.816.608 5.312 1.824 7.488 1.216 2.176 2.848 3.872 4.896 5.088 2.048 1.216 4.224 1.824 6.528 1.824zm58.46 11.616c-4.864 0-9.248-1.12-13.152-3.36-3.904-2.24-6.976-5.312-9.216-9.216-2.176-3.968-3.264-8.416-3.264-13.344 0-4.672 1.088-8.992 3.264-12.96 2.176-4.032 5.184-7.232 9.024-9.6 3.84-2.368 8.128-3.552 12.864-3.552 5.056 0 9.408 1.088 13.056 3.264 3.648 2.176 6.4 5.152 8.256 8.928 1.92 3.776 2.88 7.968 2.88 12.576 0 1.472-.096 2.88-.288 4.224h-36.768c.64 3.904 2.176 6.88 4.608 8.928 2.496 1.984 5.472 2.976 8.928 2.976 2.88 0 5.344-.608 7.392-1.824 2.112-1.28 3.776-2.976 4.992-5.088l10.176 4.992c-4.992 8.704-12.576 13.056-22.752 13.056zm11.616-31.968c-.128-1.536-.704-3.04-1.728-4.512-.96-1.536-2.336-2.784-4.128-3.744-1.728-1.024-3.776-1.536-6.144-1.536-3.008 0-5.6.896-7.776 2.688-2.112 1.728-3.648 4.096-4.608 7.104h24.384zm21.783-18.528h11.808v6.144h.768c1.472-2.368 3.552-4.224 6.24-5.568 2.688-1.408 5.6-2.112 8.736-2.112 5.888 0 10.368 1.792 13.44 5.376 3.072 3.584 4.608 8.48 4.608 14.688V93h-12.576V64.104c0-3.136-.8-5.568-2.4-7.296-1.6-1.728-3.84-2.592-6.72-2.592-3.392 0-6.144 1.312-8.256 3.936-2.048 2.624-3.072 5.92-3.072 9.888V93h-12.576V44.04zm75.624 50.496c-5.952 0-10.784-1.216-14.496-3.648-3.648-2.432-6.208-5.6-7.68-9.504l11.232-4.896c1.024 2.304 2.464 4.064 4.32 5.28 1.92 1.152 4.128 1.728 6.624 1.728 2.304 0 4.224-.352 5.76-1.056 1.536-.768 2.304-1.984 2.304-3.648 0-1.6-.704-2.784-2.112-3.552-1.408-.832-3.52-1.568-6.336-2.208l-5.76-1.248c-3.968-.96-7.264-2.688-9.888-5.184-2.624-2.56-3.936-5.728-3.936-9.504 0-2.816.832-5.344 2.496-7.584 1.728-2.24 4.032-3.968 6.912-5.184 2.944-1.216 6.176-1.824 9.696-1.824 10.112 0 16.864 3.552 20.256 10.656l-10.752 4.704c-1.92-3.456-4.992-5.184-9.216-5.184-2.176 0-3.904.416-5.184 1.248-1.28.768-1.92 1.76-1.92 2.976 0 2.304 2.176 4.032 6.528 5.184l7.2 1.728c4.864 1.216 8.512 3.072 10.944 5.568 2.496 2.496 3.744 5.568 3.744 9.216 0 3.136-.928 5.92-2.784 8.352-1.792 2.368-4.288 4.224-7.488 5.568-3.136 1.344-6.624 2.016-10.464 2.016zm29.845-70.272h12.576V41.64l-.768 8.544h.768c1.408-2.304 3.456-4.16 6.144-5.568 2.688-1.408 5.6-2.112 8.736-2.112 5.952 0 10.496 1.792 13.632 5.376 3.2 3.52 4.8 8.416 4.8 14.688V93H504.05V64.104c0-3.136-.864-5.568-2.592-7.296-1.664-1.728-3.904-2.592-6.72-2.592-3.328 0-6.08 1.344-8.256 4.032-2.112 2.688-3.168 5.984-3.168 9.888V93h-12.576V24.264zm64.854 14.4c-2.24 0-4.16-.8-5.76-2.4-1.6-1.6-2.4-3.52-2.4-5.76 0-2.24.8-4.128 2.4-5.664 1.6-1.6 3.52-2.4 5.76-2.4 2.24 0 4.128.8 5.664 2.4 1.6 1.536 2.4 3.424 2.4 5.664 0 2.24-.8 4.16-2.4 5.76-1.536 1.6-3.424 2.4-5.664 2.4zm-6.336 5.376h12.576V93h-12.576V44.04zm25.379 0h11.808v5.952h.768c1.344-2.112 3.296-3.872 5.856-5.28 2.56-1.472 5.504-2.208 8.832-2.208 4.416 0 8.416 1.12 12 3.36 3.648 2.176 6.496 5.248 8.544 9.216 2.048 3.968 3.072 8.448 3.072 13.44 0 5.056-1.024 9.568-3.072 13.536-2.048 3.904-4.896 6.976-8.544 9.216-3.584 2.176-7.584 3.264-12 3.264-3.328 0-6.304-.704-8.928-2.112-2.56-1.408-4.48-3.168-5.76-5.28h-.768l.768 6.912v19.68h-12.576V44.04zm25.056 38.88a12.75 12.75 0 006.624-1.824c2.048-1.216 3.68-2.912 4.896-5.088 1.216-2.176 1.824-4.672 1.824-7.488 0-2.816-.608-5.312-1.824-7.488-1.216-2.176-2.848-3.84-4.896-4.992a12.75 12.75 0 00-6.624-1.824c-2.304 0-4.48.608-6.528 1.824-2.048 1.152-3.68 2.816-4.896 4.992-1.216 2.176-1.824 4.672-1.824 7.488 0 2.816.608 5.312 1.824 7.488 1.216 2.176 2.848 3.872 4.896 5.088 2.048 1.216 4.224 1.824 6.528 1.824zm43.1 10.656c-2.304 0-4.288-.8-5.952-2.4-1.6-1.664-2.4-3.648-2.4-5.952s.8-4.256 2.4-5.856c1.664-1.6 3.648-2.4 5.952-2.4s4.256.8 5.856 2.4c1.664 1.6 2.496 3.552 2.496 5.856s-.832 4.288-2.496 5.952c-1.6 1.6-3.552 2.4-5.856 2.4zm34.861.96c-5.184 0-9.44-1.504-12.768-4.512-3.328-3.072-4.992-7.072-4.992-12 0-3.264.864-6.144 2.592-8.64 1.728-2.496 4.096-4.416 7.104-5.76 3.008-1.344 6.336-2.016 9.984-2.016 5.056 0 9.376.736 12.96 2.208v-2.112c0-2.688-1.024-4.864-3.072-6.528-1.984-1.664-4.672-2.496-8.064-2.496-2.304 0-4.544.544-6.72 1.632-2.112 1.024-3.872 2.4-5.28 4.128l-8.064-6.336c2.368-3.072 5.344-5.44 8.928-7.104 3.584-1.664 7.488-2.496 11.712-2.496 7.488 0 13.184 1.728 17.088 5.184 3.904 3.456 5.856 8.512 5.856 15.168V93h-12.384v-4.992h-.768c-1.472 1.92-3.424 3.488-5.856 4.704-2.368 1.216-5.12 1.824-8.256 1.824zm2.976-9.792c3.648 0 6.528-1.152 8.64-3.456 2.176-2.368 3.264-5.12 3.264-8.256a23.841 23.841 0 00-10.272-2.304c-6.528 0-9.792 2.432-9.792 7.296 0 1.984.704 3.616 2.112 4.896 1.408 1.216 3.424 1.824 6.048 1.824zm42.964-46.08c-2.24 0-4.16-.8-5.76-2.4-1.6-1.6-2.4-3.52-2.4-5.76 0-2.24.8-4.128 2.4-5.664 1.6-1.6 3.52-2.4 5.76-2.4 2.24 0 4.128.8 5.664 2.4 1.6 1.536 2.4 3.424 2.4 5.664 0 2.24-.8 4.16-2.4 5.76-1.536 1.6-3.424 2.4-5.664 2.4zm-6.336 5.376h12.576V93h-12.576V44.04z" fill="url(#paint2_linear_782_1398)"/><defs><linearGradient id="paint0_linear_782_1398" x1="47.819" y1="9" x2="47.819" y2="94.206" gradientUnits="userSpaceOnUse"><stop stop-color="#024EC9"/><stop offset="1" stop-color="#0061FF"/></linearGradient><linearGradient id="paint1_linear_782_1398" x1="65.365" y1="38.524" x2="65.365" y2="120.931" gradientUnits="userSpaceOnUse"><stop stop-color="#024EC9"/><stop offset="1" stop-color="#0061FF"/></linearGradient><linearGradient id="paint2_linear_782_1398" x1="184" y1="61" x2="717" y2="61" gradientUnits="userSpaceOnUse"><stop stop-color="#024EC9"/><stop offset="1" stop-color="#0061FF"/></linearGradient></defs></svg>

<svg width="200" height="122" viewBox="0 0 717 122" fill="none" xmlns="http://www.w3.org/2000/svg">
<path d="M8.27384 94.2058C1.52987 82.6761 -1.57061 68.4334 0.778741 55.2845C3.1281 42.1355 10.0869 30.2543 20.4062 21.7733C30.7255 13.2924 43.7297 8.76695 57.0847 9.00925C70.4397 9.25155 85.634 16.6089 95.6389 25.4586L83.6245 34.0068C76.2147 27.4525 66.7115 23.7537 56.8205 23.5743C46.9294 23.3948 37.2983 26.7465 29.6556 33.0276C22.0129 39.3088 16.859 48.1083 15.1191 57.8467C13.3791 67.5851 15.1669 77.6248 20.1616 86.1639L8.27384 94.2058Z" fill="url(#paint0_linear_782_1398)"/>
<path d="M105.497 38.5237C110.654 49.8333 113.394 65.762 110.532 77.8579C107.67 89.9538 100.863 100.753 91.1841 108.552C81.5054 116.351 69.5059 120.706 57.078 120.931C37.6012 120.931 28.995 114.921 19.0405 107.477L31.304 98.0828C38.6577 103.582 47.6326 106.477 56.8135 106.31C65.9944 106.144 74.8588 102.927 82.0088 97.1655C89.1587 91.404 94.1874 83.4264 96.3018 74.4908C98.4161 65.5551 97.4958 56.1699 93.6861 47.8151L105.497 38.5237Z" fill="url(#paint1_linear_782_1398)"/>
<path d="M213.568 94.536C208.512 94.536 204 93.416 200.032 91.176C196.064 88.872 192.96 85.768 190.72 81.864C188.544 77.896 187.456 73.448 187.456 68.52C187.456 63.656 188.544 59.24 190.72 55.272C192.96 51.304 196.064 48.2 200.032 45.96C204 43.656 208.512 42.504 213.568 42.504C218.56 42.504 223.04 43.656 227.008 45.96C230.976 48.2 234.048 51.304 236.224 55.272C238.464 59.24 239.584 63.656 239.584 68.52C239.584 73.448 238.464 77.896 236.224 81.864C234.048 85.768 230.976 88.872 227.008 91.176C223.04 93.416 218.56 94.536 213.568 94.536ZM213.568 82.92C216 82.92 218.24 82.344 220.288 81.192C222.336 80.04 223.968 78.376 225.184 76.2C226.4 74.024 227.008 71.464 227.008 68.52C227.008 65.64 226.4 63.112 225.184 60.936C223.968 58.76 222.336 57.096 220.288 55.944C218.24 54.792 216 54.216 213.568 54.216C211.136 54.216 208.896 54.792 206.848 55.944C204.8 57.096 203.136 58.76 201.856 60.936C200.64 63.112 200.032 65.64 200.032 68.52C200.032 71.4 200.64 73.96 201.856 76.2C203.136 78.376 204.8 80.04 206.848 81.192C208.896 82.344 211.136 82.92 213.568 82.92ZM248.354 44.04H260.162V49.992H260.93C262.274 47.88 264.226 46.12 266.786 44.712C269.346 43.24 272.29 42.504 275.618 42.504C280.034 42.504 284.034 43.624 287.618 45.864C291.266 48.04 294.114 51.112 296.162 55.08C298.21 59.048 299.234 63.528 299.234 68.52C299.234 73.576 298.21 78.088 296.162 82.056C294.114 85.96 291.266 89.032 287.618 91.272C284.034 93.448 280.034 94.536 275.618 94.536C272.29 94.536 269.314 93.832 266.69 92.424C264.13 91.016 262.21 89.256 260.93 87.144H260.162L260.93 94.056V113.736H248.354V44.04ZM273.41 82.92C275.778 82.92 277.986 82.312 280.034 81.096C282.082 79.88 283.714 78.184 284.93 76.008C286.146 73.832 286.754 71.336 286.754 68.52C286.754 65.704 286.146 63.208 284.93 61.032C283.714 58.856 282.082 57.192 280.034 56.04C277.986 54.824 275.778 54.216 273.41 54.216C271.106 54.216 268.93 54.824 266.882 56.04C264.834 57.192 263.202 58.856 261.986 61.032C260.77 63.208 260.162 65.704 260.162 68.52C260.162 71.336 260.77 73.832 261.986 76.008C263.202 78.184 264.834 79.88 266.882 81.096C268.93 82.312 271.106 82.92 273.41 82.92ZM331.87 94.536C327.006 94.536 322.622 93.416 318.718 91.176C314.814 88.936 311.742 85.864 309.502 81.96C307.326 77.992 306.238 73.544 306.238 68.616C306.238 63.944 307.326 59.624 309.502 55.656C311.678 51.624 314.686 48.424 318.526 46.056C322.366 43.688 326.654 42.504 331.39 42.504C336.446 42.504 340.798 43.592 344.446 45.768C348.094 47.944 350.846 50.92 352.702 54.696C354.622 58.472 355.582 62.664 355.582 67.272C355.582 68.744 355.486 70.152 355.294 71.496H318.526C319.166 75.4 320.702 78.376 323.134 80.424C325.63 82.408 328.606 83.4 332.062 83.4C334.942 83.4 337.406 82.792 339.454 81.576C341.566 80.296 343.23 78.6 344.446 76.488L354.622 81.48C349.63 90.184 342.046 94.536 331.87 94.536ZM343.486 62.568C343.358 61.032 342.782 59.528 341.758 58.056C340.798 56.52 339.422 55.272 337.63 54.312C335.902 53.288 333.854 52.776 331.486 52.776C328.478 52.776 325.886 53.672 323.71 55.464C321.598 57.192 320.062 59.56 319.102 62.568H343.486ZM365.269 44.04H377.077V50.184H377.845C379.317 47.816 381.397 45.96 384.085 44.616C386.773 43.208 389.685 42.504 392.821 42.504C398.709 42.504 403.189 44.296 406.261 47.88C409.333 51.464 410.869 56.36 410.869 62.568V93H398.293V64.104C398.293 60.968 397.493 58.536 395.893 56.808C394.293 55.08 392.053 54.216 389.173 54.216C385.781 54.216 383.029 55.528 380.917 58.152C378.869 60.776 377.845 64.072 377.845 68.04V93H365.269V44.04ZM440.893 94.536C434.941 94.536 430.109 93.32 426.397 90.888C422.749 88.456 420.189 85.288 418.717 81.384L429.949 76.488C430.973 78.792 432.413 80.552 434.269 81.768C436.189 82.92 438.397 83.496 440.893 83.496C443.197 83.496 445.117 83.144 446.653 82.44C448.189 81.672 448.957 80.456 448.957 78.792C448.957 77.192 448.253 76.008 446.845 75.24C445.437 74.408 443.325 73.672 440.509 73.032L434.749 71.784C430.781 70.824 427.485 69.096 424.861 66.6C422.237 64.04 420.925 60.872 420.925 57.096C420.925 54.28 421.757 51.752 423.421 49.512C425.149 47.272 427.453 45.544 430.333 44.328C433.277 43.112 436.509 42.504 440.029 42.504C450.141 42.504 456.893 46.056 460.285 53.16L449.533 57.864C447.613 54.408 444.541 52.68 440.317 52.68C438.141 52.68 436.413 53.096 435.133 53.928C433.853 54.696 433.213 55.688 433.213 56.904C433.213 59.208 435.389 60.936 439.741 62.088L446.941 63.816C451.805 65.032 455.453 66.888 457.885 69.384C460.381 71.88 461.629 74.952 461.629 78.6C461.629 81.736 460.701 84.52 458.845 86.952C457.053 89.32 454.557 91.176 451.357 92.52C448.221 93.864 444.733 94.536 440.893 94.536ZM470.738 24.264H483.314V41.64L482.546 50.184H483.314C484.722 47.88 486.77 46.024 489.458 44.616C492.146 43.208 495.058 42.504 498.194 42.504C504.146 42.504 508.69 44.296 511.826 47.88C515.026 51.4 516.626 56.296 516.626 62.568V93H504.05V64.104C504.05 60.968 503.186 58.536 501.458 56.808C499.794 55.08 497.554 54.216 494.738 54.216C491.41 54.216 488.658 55.56 486.482 58.248C484.37 60.936 483.314 64.232 483.314 68.136V93H470.738V24.264ZM535.592 38.664C533.352 38.664 531.432 37.864 529.832 36.264C528.232 34.664 527.432 32.744 527.432 30.504C527.432 28.264 528.232 26.376 529.832 24.84C531.432 23.24 533.352 22.44 535.592 22.44C537.832 22.44 539.72 23.24 541.256 24.84C542.856 26.376 543.656 28.264 543.656 30.504C543.656 32.744 542.856 34.664 541.256 36.264C539.72 37.864 537.832 38.664 535.592 38.664ZM529.256 44.04H541.832V93H529.256V44.04ZM554.635 44.04H566.443V49.992H567.211C568.555 47.88 570.507 46.12 573.067 44.712C575.627 43.24 578.571 42.504 581.899 42.504C586.315 42.504 590.315 43.624 593.899 45.864C597.547 48.04 600.395 51.112 602.443 55.08C604.491 59.048 605.515 63.528 605.515 68.52C605.515 73.576 604.491 78.088 602.443 82.056C600.395 85.96 597.547 89.032 593.899 91.272C590.315 93.448 586.315 94.536 581.899 94.536C578.571 94.536 575.595 93.832 572.971 92.424C570.411 91.016 568.491 89.256 567.211 87.144H566.443L567.211 94.056V113.736H554.635V44.04ZM579.691 82.92C582.059 82.92 584.267 82.312 586.315 81.096C588.363 79.88 589.995 78.184 591.211 76.008C592.427 73.832 593.035 71.336 593.035 68.52C593.035 65.704 592.427 63.208 591.211 61.032C589.995 58.856 588.363 57.192 586.315 56.04C584.267 54.824 582.059 54.216 579.691 54.216C577.387 54.216 575.211 54.824 573.163 56.04C571.115 57.192 569.483 58.856 568.267 61.032C567.051 63.208 566.443 65.704 566.443 68.52C566.443 71.336 567.051 73.832 568.267 76.008C569.483 78.184 571.115 79.88 573.163 81.096C575.211 82.312 577.387 82.92 579.691 82.92ZM622.791 93.576C620.487 93.576 618.503 92.776 616.839 91.176C615.239 89.512 614.439 87.528 614.439 85.224C614.439 82.92 615.239 80.968 616.839 79.368C618.503 77.768 620.487 76.968 622.791 76.968C625.095 76.968 627.047 77.768 628.647 79.368C630.311 80.968 631.143 82.92 631.143 85.224C631.143 87.528 630.311 89.512 628.647 91.176C627.047 92.776 625.095 93.576 622.791 93.576ZM657.652 94.536C652.468 94.536 648.212 93.032 644.884 90.024C641.556 86.952 639.892 82.952 639.892 78.024C639.892 74.76 640.756 71.88 642.484 69.384C644.212 66.888 646.58 64.968 649.588 63.624C652.596 62.28 655.924 61.608 659.572 61.608C664.628 61.608 668.948 62.344 672.532 63.816V61.704C672.532 59.016 671.508 56.84 669.46 55.176C667.476 53.512 664.788 52.68 661.396 52.68C659.092 52.68 656.852 53.224 654.676 54.312C652.564 55.336 650.804 56.712 649.396 58.44L641.332 52.104C643.7 49.032 646.676 46.664 650.26 45C653.844 43.336 657.748 42.504 661.972 42.504C669.46 42.504 675.156 44.232 679.06 47.688C682.964 51.144 684.916 56.2 684.916 62.856V93H672.532V88.008H671.764C670.292 89.928 668.34 91.496 665.908 92.712C663.54 93.928 660.788 94.536 657.652 94.536ZM660.628 84.744C664.276 84.744 667.156 83.592 669.268 81.288C671.444 78.92 672.532 76.168 672.532 73.032C669.268 71.496 665.844 70.728 662.26 70.728C655.732 70.728 652.468 73.16 652.468 78.024C652.468 80.008 653.172 81.64 654.58 82.92C655.988 84.136 658.004 84.744 660.628 84.744ZM703.592 38.664C701.352 38.664 699.432 37.864 697.832 36.264C696.232 34.664 695.432 32.744 695.432 30.504C695.432 28.264 696.232 26.376 697.832 24.84C699.432 23.24 701.352 22.44 703.592 22.44C705.832 22.44 707.72 23.24 709.256 24.84C710.856 26.376 711.656 28.264 711.656 30.504C711.656 32.744 710.856 34.664 709.256 36.264C707.72 37.864 705.832 38.664 703.592 38.664ZM697.256 44.04H709.832V93H697.256V44.04Z" fill="url(#paint2_linear_782_1398)"/>
<defs>
<linearGradient id="paint0_linear_782_1398" x1="47.8195" y1="9" x2="47.8195" y2="94.2058" gradientUnits="userSpaceOnUse">
<stop stop-color="#024EC9"/>
<stop offset="1" stop-color="#0061FF"/>
</linearGradient>
<linearGradient id="paint1_linear_782_1398" x1="65.3645" y1="38.5237" x2="65.3645" y2="120.931" gradientUnits="userSpaceOnUse">
<stop stop-color="#024EC9"/>
<stop offset="1" stop-color="#0061FF"/>
</linearGradient>
<linearGradient id="paint2_linear_782_1398" x1="184" y1="61" x2="717" y2="61" gradientUnits="userSpaceOnUse">
<stop stop-color="#024EC9"/>
<stop offset="1" stop-color="#0061FF"/>
</linearGradient>
</defs>
</svg>
